communes/2194.svg

<?xml version="1.0" encoding="UTF-8" standalone="no"?>
<svg
   xmlns:dc="http://purl.org/dc/elements/1.1/"
   xmlns:cc="http://creativecommons.org/ns#"
   xmlns:rdf="http://www.w3.org/1999/02/22-rdf-syntax-ns#"
   xmlns:svg="http://www.w3.org/2000/svg"
   xmlns="http://www.w3.org/2000/svg"
   xmlns:xlink="http://www.w3.org/1999/xlink"
   xmlns:sodipodi="http://sodipodi.sourceforge.net/DTD/sodipodi-0.dtd"
   xmlns:inkscape="http://www.inkscape.org/namespaces/inkscape"
   height="763"
   width="603"
   version="1.0"
   id="svg20"
   sodipodi:version="0.32"
   inkscape:version="0.46"
   sodipodi:docname="2194.svg"
   inkscape:output_extension="org.inkscape.output.svg.inkscape">
  <metadata
     id="metadata31">
    <rdf:RDF>
      <cc:Work
         rdf:about="">
        <dc:format>image/svg+xml</dc:format>
        <dc:type
           rdf:resource="http://purl.org/dc/dcmitype/StillImage" />
        <dc:date>09-JUN-2010</dc:date>
        <dc:creator>
          <cc:Agent>
            <dc:title>Aliman5040</dc:title>
          </cc:Agent>
        </dc:creator>
        <cc:license
           rdf:resource="http://creativecommons.org/licenses/GPL/2.0/" />
        <dc:coverage />
        <dc:description />
        <dc:subject>
          <rdf:Bag />
        </dc:subject>
        <dc:language />
        <dc:title>Wappen Gemeinde Ferpicloz</dc:title>
      </cc:Work>
      <cc:License
         rdf:about="http://creativecommons.org/licenses/GPL/2.0/">
        <cc:permits
           rdf:resource="http://web.resource.org/cc/Reproduction" />
        <cc:permits
           rdf:resource="http://web.resource.org/cc/Distribution" />
        <cc:requires
           rdf:resource="http://web.resource.org/cc/Notice" />
        <cc:permits
           rdf:resource="http://web.resource.org/cc/DerivativeWorks" />
        <cc:requires
           rdf:resource="http://web.resource.org/cc/ShareAlike" />
        <cc:requires
           rdf:resource="http://web.resource.org/cc/SourceCode" />
      </cc:License>
    </rdf:RDF>
  </metadata>
  <defs
     id="defs29">
    <inkscape:perspective
       sodipodi:type="inkscape:persp3d"
       inkscape:vp_x="0 : 381.5 : 1"
       inkscape:vp_y="0 : 1000 : 0"
       inkscape:vp_z="603 : 381.5 : 1"
       inkscape:persp3d-origin="301.5 : 254.33333 : 1"
       id="perspective5149" />
    <linearGradient
       id="linearGradient2893">
      <stop
         style="stop-color:#ffffff;stop-opacity:0.3137255;"
         offset="0"
         id="stop2895" />
      <stop
         id="stop2897"
         offset="0.19"
         style="stop-color:#ffffff;stop-opacity:0.25098041;" />
      <stop
         style="stop-color:#6b6b6b;stop-opacity:0.1254902;"
         offset="0.60000002"
         id="stop2901" />
      <stop
         style="stop-color:#000000;stop-opacity:0.1254902;"
         offset="1"
         id="stop2899" />
    </linearGradient>
    <radialGradient
       inkscape:collect="always"
       xlink:href="#linearGradient2893"
       id="radialGradient3236"
       gradientUnits="userSpaceOnUse"
       gradientTransform="matrix(1.215027,1.531577e-24,1.464684e-23,1.266667,-839.1924,-490.4894)"
       cx="858.04236"
       cy="579.93323"
       fx="858.04236"
       fy="579.93323"
       r="300" />
    <inkscape:perspective
       id="perspective5197"
       inkscape:persp3d-origin="372.04724 : 350.78739 : 1"
       inkscape:vp_z="744.09448 : 526.18109 : 1"
       inkscape:vp_y="0 : 1000 : 0"
       inkscape:vp_x="0 : 526.18109 : 1"
       sodipodi:type="inkscape:persp3d" />
    <inkscape:perspective
       id="perspective2517"
       inkscape:persp3d-origin="372.04724 : 350.78739 : 1"
       inkscape:vp_z="744.09448 : 526.18109 : 1"
       inkscape:vp_y="0 : 1000 : 0"
       inkscape:vp_x="0 : 526.18109 : 1"
       sodipodi:type="inkscape:persp3d" />
  </defs>
  <sodipodi:namedview
     inkscape:window-height="720"
     inkscape:window-width="1280"
     inkscape:pageshadow="2"
     inkscape:pageopacity="0.0"
     guidetolerance="10.0"
     gridtolerance="10.0"
     objecttolerance="10.0"
     borderopacity="1.0"
     bordercolor="#666666"
     pagecolor="#ffffff"
     id="base"
     inkscape:zoom="0.29882045"
     inkscape:cx="274.85367"
     inkscape:cy="369.6455"
     inkscape:window-x="-8"
     inkscape:window-y="-8"
     inkscape:current-layer="layer2"
     showgrid="true"
     showguides="true"
     inkscape:document-rotation="0">
    <inkscape:grid
       type="xygrid"
       id="grid5151"
       visible="true"
       enabled="true" />
  </sodipodi:namedview>
  <g
     inkscape:groupmode="layer"
     id="layer1"
     inkscape:label="Fond écu"
     style="display:inline"
     sodipodi:insensitive="true">
    <path
       id="path1899"
       d="M 1.5,1.49998 L 1.5,460.3679 C 1.5,626.6785 135.81456,761.5 301.49999,761.5 C 467.18543,761.5 601.5,626.6785 601.5,460.3679 L 601.5,1.49998 L 1.5,1.49998 z"
       style="fill:#ffffff;fill-opacity:1" />
  </g>
  <g
     inkscape:groupmode="layer"
     id="layer2"
     inkscape:label="Meubles"
     style="display:inline"
     sodipodi:insensitive="true">
    <path
       id="path2523"
       style="fill:#e20909;fill-opacity:1;fill-rule:evenodd;stroke:#000000;stroke-width:2.74820971;stroke-linecap:butt;stroke-linejoin:miter;stroke-miterlimit:4;stroke-dasharray:none;stroke-opacity:1"
       d="M 127.0625,180.4375 C 119.99427,180.67439 113.00966,182.08869 106.1875,184.75 C -0.33783661,226.30515 80.703644,315.35391 110.3125,340.28125 C 136.53919,362.36118 150.04694,377.03862 114.78125,387.9375 C 124.05137,408.99461 161.01642,415.46669 169.3125,387.5 C 180.33428,350.34497 165.26167,285.31705 211.8125,340.28125 C 230.04863,361.81328 237.17511,386.78544 239.09375,400.75 L 274.8125,400.75 C 267.81244,279.81014 193.87665,178.19812 127.0625,180.4375 z M 472.40625,180.4375 C 406.54575,181.80917 335.12075,281.93952 328.25,400.75 L 363.96875,400.75 C 365.88739,386.78544 372.98261,361.81329 391.21875,340.28125 C 437.76958,285.31704 422.72822,350.34497 433.75,387.5 C 442.04607,415.46669 479.01112,408.99461 488.28125,387.9375 C 453.01555,377.03862 466.52331,362.36119 492.75,340.28125 C 522.35886,315.3539 603.30659,226.30516 496.78125,184.75 C 488.82208,181.64514 480.68051,180.26516 472.40625,180.4375 z M 141.125,437.9375 C 133.81188,438.00976 125.61556,440.42744 117.625,443.6875 C 123.40701,457.99782 137.78523,466.31826 110.3125,491.4375 C 79.500508,519.60995 124.0581,579.36433 165.28125,578.78125 C 223.31797,577.96045 264.1072,523.73406 273.34375,450.21875 L 232.75,450.21875 C 213.79592,525.9564 171.49923,519.12074 165.28125,463.9375 C 163.04073,444.18034 153.31353,437.81707 141.125,437.9375 z M 461.9375,437.9375 C 449.74896,437.81708 440.02176,444.18034 437.78125,463.9375 C 431.56328,519.12074 389.26658,525.9564 370.3125,450.21875 L 329.6875,450.21875 C 338.9238,523.73455 379.74426,577.96045 437.78125,578.78125 C 479.00441,579.36432 523.56199,519.60995 492.75,491.4375 C 465.27728,466.31826 479.65548,457.99781 485.4375,443.6875 C 477.44694,440.42744 469.25062,438.00975 461.9375,437.9375 z M 600,3 L 300,383 L 522.125,664.375 C 565.02874,617.64886 593.39363,557.27895 600,490.46875 L 600,3 z M 300,383 L 1.5,4.90625 L 1.5,460.375 C 1.5,538.22936 30.942626,609.17231 79.25,662.625 L 300,383 z M 231.65625,400.75 C 223.41162,400.74999 223.41162,414.46875 231.65625,414.46875 L 286,414.46875 L 204.1875,414.46875 C 190.44646,414.46873 190.44645,436.46875 204.1875,436.46875 L 285,436.40159 L 226.15625,436.46875 C 217.91162,436.46876 217.91162,450.21875 226.15625,450.21875 L 285,450.21875 C 286.06075,437.868 286.625,424.17441 286.625,408.96875 C 286.625,406.20473 286.5542,403.47828 286.46875,400.75 L 231.65625,400.75 z M 319.78125,400.75 C 319.72526,401.66673 319.64624,402.5726 319.59375,403.5 C 318.60446,420.97749 318.67188,436.44185 319.5,450.21875 L 374.5625,450.21875 C 382.80712,450.21875 382.80713,436.46875 374.5625,436.46875 L 320,436 L 396.5625,436.46875 C 410.30354,436.46876 410.30355,414.46875 396.5625,414.46875 L 320,414.46875 L 369.0625,414.46875 C 377.30713,414.46873 377.30713,400.75 369.0625,400.75 L 319.78125,400.75 z M 300,120.42 C 335.72673,153.39852 413.0467,136.90928 399.30566,180.88064 C 379.45778,244.39383 327.8522,257.83051 319.60757,403.48563 C 310.74943,559.9795 383.75334,556.67799 377.31998,598.60853 C 370.68203,641.87249 327.4821,615.09791 300,642.58 L 300,120.42 L 300,642.58 C 269.7697,615.09791 217.92381,642.57988 217.92381,601.35674 C 217.92381,560.13359 286.62905,573.87464 286.62905,408.98205 C 286.62905,293.08867 209.67918,208.36274 209.67918,175.38422 C 209.67918,123.16823 269.7697,153.39852 300,120.42 z"
       sodipodi:nodetypes="csscssccccccsscsscccssccccccccsscccccccccccccccccccccscccscccccccccccssscccsssc" />
    <path
       style="fill:none;fill-opacity:1;fill-rule:nonzero;stroke:#000000;stroke-width:2.74820971;stroke-linecap:butt;stroke-linejoin:miter;stroke-miterlimit:4;stroke-dasharray:none;stroke-opacity:1"
       d="M 349.0867,450.4855 C 356.33328,494.89092 379.02186,546.39254 424.03954,546.39254 C 512.98901,546.39254 415.50415,450.2052 484.28756,444.10849 M 487.24837,389.74458 C 440.5288,406.23384 443.39494,358.17458 459.76627,329.28397 C 506.48584,246.83767 442.32969,252.53524 410.2985,285.31261 C 385.22331,310.97194 353.21613,345.36905 347.37209,400.92441"
       id="path3295"
       sodipodi:nodetypes="ccccssc" />
    <path
       sodipodi:nodetypes="ccccssc"
       id="path3299"
       d="M 253.99411,450.18204 C 246.80153,494.65593 224.11223,546.39254 178.99195,546.39254 C 90.042489,546.39254 187.52734,450.2052 118.74394,444.10849 M 115.78313,389.74458 C 162.5027,406.23384 159.63656,358.17458 143.26523,329.28397 C 96.54566,246.83767 160.70181,252.53523 192.733,285.31261 C 217.7141,310.87566 249.57528,345.11106 255.59253,400.29998"
       style="fill:none;fill-opacity:1;fill-rule:nonzero;stroke:#000000;stroke-width:2.74820971;stroke-linecap:butt;stroke-linejoin:miter;stroke-miterlimit:4;stroke-dasharray:none;stroke-opacity:1" />
  </g>
  <g
     inkscape:groupmode="layer"
     id="layer3"
     inkscape:label="Reflet final"
     style="display:inline"
     sodipodi:insensitive="true">
    <path
       style="fill:url(#radialGradient3236);fill-opacity:1"
       d="M 1.5,1.5 L 1.5,460.3679 C 1.5,626.67854 135.81454,761.5 301.49993,761.5 C 467.1854,761.5 601.5,626.67854 601.5,460.3679 L 601.5,1.5 L 1.5,1.5 z "
       id="path2346" />
  </g>
  <g
     inkscape:groupmode="layer"
     id="layer4"
     inkscape:label="Contour final"
     style="display:inline"
     sodipodi:insensitive="true">
    <path
       style="fill:none;fill-opacity:1;stroke:#000000;stroke-width:3;stroke-miterlimit:4;stroke-dasharray:none;stroke-opacity:1"
       d="M 1.5,1.5 L 1.5,460.36794 C 1.5,626.67854 135.81454,761.5 301.49993,761.5 C 467.1854,761.5 601.5,626.67854 601.5,460.36794 L 601.5,1.5 L 1.5,1.5 z"
       id="path3239" />
  </g>
</svg>

<?xml version="1.0" encoding="UTF-8"?>
<svg version="1.0" viewBox="0 0 603 763" xmlns="http://www.w3.org/2000/svg" xmlns:cc="http://creativecommons.org/ns#" xmlns:dc="http://purl.org/dc/elements/1.1/" xmlns:rdf="http://www.w3.org/1999/02/22-rdf-syntax-ns#" xmlns:xlink="http://www.w3.org/1999/xlink">
<metadata>
<rdf:RDF>
<cc:Work rdf:about="">
<dc:format>image/svg+xml</dc:format>
<dc:type rdf:resource="http://purl.org/dc/dcmitype/StillImage"/>
<dc:date>09-JUN-2010</dc:date>
<dc:creator>
<cc:Agent>
<dc:title>Aliman5040</dc:title>
</cc:Agent>
</dc:creator>
<cc:license rdf:resource="http://creativecommons.org/licenses/GPL/2.0/"/>
<dc:coverage/>
<dc:description/>
<dc:subject>
<rdf:Bag/>
</dc:subject>
<dc:language/>
<dc:title>Wappen Gemeinde Ferpicloz</dc:title>
</cc:Work>
<cc:License rdf:about="http://creativecommons.org/licenses/GPL/2.0/">
<cc:permits rdf:resource="http://web.resource.org/cc/Reproduction"/>
<cc:permits rdf:resource="http://web.resource.org/cc/Distribution"/>
<cc:requires rdf:resource="http://web.resource.org/cc/Notice"/>
<cc:permits rdf:resource="http://web.resource.org/cc/DerivativeWorks"/>
<cc:requires rdf:resource="http://web.resource.org/cc/ShareAlike"/>
<cc:requires rdf:resource="http://web.resource.org/cc/SourceCode"/>
</cc:License>
</rdf:RDF>
</metadata>
<defs>
<radialGradient id="a" cx="858.04" cy="579.93" r="300" gradientTransform="matrix(1.215 1.5316e-24 1.4647e-23 1.2667 -839.19 -490.49)" gradientUnits="userSpaceOnUse">
<stop stop-color="#fff" stop-opacity=".31373" offset="0"/>
<stop stop-color="#fff" stop-opacity=".25098" offset=".19"/>
<stop stop-color="#6b6b6b" stop-opacity=".12549" offset=".6"/>
<stop stop-opacity=".12549" offset="1"/>
</radialGradient>
</defs>
<g>
<path d="m1.5 1.5v458.87c0 166.31 134.31 301.13 300 301.13 165.69 0 300-134.82 300-301.13v-458.87h-600z" fill="#fff"/>
<path d="m127.06 180.44c-7.0682 0.23689-14.053 1.6512-20.875 4.3125-106.53 41.555-25.484 130.6 4.125 155.53 26.227 22.08 39.734 36.757 4.4688 47.656 9.2701 21.057 46.235 27.529 54.531-0.4375 11.022-37.155-4.0508-102.18 42.5-47.219 18.236 21.532 25.363 46.504 27.281 60.469h35.719c-7.0001-120.94-80.936-222.55-147.75-220.31zm345.34 0c-65.86 1.3717-137.29 101.5-144.16 220.31h35.719c1.9186-13.965 9.0139-38.937 27.25-60.469 46.551-54.964 31.509 10.064 42.531 47.219 8.2961 27.967 45.261 21.495 54.531 0.4375-35.266-10.899-21.758-25.576 4.4688-47.656 29.609-24.927 110.56-113.98 4.0312-155.53-7.9592-3.1049-16.101-4.4848-24.375-4.3125zm-331.28 257.5c-7.3131 0.07226-15.509 2.4899-23.5 5.75 5.782 14.31 20.16 22.631-7.3125 47.75-30.812 28.172 13.746 87.927 54.969 87.344 58.037-0.8208 98.826-55.047 108.06-128.56h-40.594c-18.954 75.738-61.251 68.902-67.469 13.719-2.2405-19.757-11.968-26.12-24.156-26zm320.81 0c-12.189-0.12042-21.916 6.2428-24.156 26-6.218 55.183-48.515 62.019-67.469-13.719h-40.625c9.2363 73.516 50.057 127.74 108.09 128.56 41.223 0.58307 85.781-59.171 54.969-87.344-27.473-25.119-13.095-33.44-7.3125-47.75-7.9906-3.2601-16.187-5.6778-23.5-5.75zm138.06-434.94-300 380 222.12 281.38c42.904-46.726 71.269-107.1 77.875-173.91v-487.47zm-300 380-298.5-378.09v455.47c0 77.854 29.443 148.8 77.75 202.25l220.75-279.62zm-68.344 17.75c-8.2446-1e-5 -8.2446 13.719 0 13.719h54.344-81.812c-13.741-2e-5 -13.741 22 0 22l80.812-0.06716-58.844 0.06716c-8.2446 1e-5 -8.2446 13.75 0 13.75h58.844c1.0608-12.351 1.625-26.044 1.625-41.25 0-2.764-0.0708-5.4905-0.15625-8.2188h-54.812zm88.125 0c-0.05599 0.91673-0.13501 1.8226-0.1875 2.75-0.98929 17.477-0.92187 32.942-0.09375 46.719h55.062c8.2446 0 8.2446-13.75 0-13.75l-54.562-0.46875 76.562 0.46875c13.741 1e-5 13.741-22 0-22h-76.562 49.062c8.2446-2e-5 8.2446-13.719 0-13.719h-49.281zm-19.781-280.33c35.727 32.979 113.05 16.489 99.306 60.461-19.848 63.513-71.453 76.95-79.698 222.6-8.8581 156.49 64.146 153.19 57.712 195.12-6.638 43.264-49.838 16.489-77.32 43.971v-522.16 522.16c-30.23-27.482-82.076-1.2e-4 -82.076-41.223 0-41.223 68.705-27.482 68.705-192.37 0-115.89-76.95-200.62-76.95-233.6 0-52.216 60.091-21.986 90.321-54.964z" fill="#e20909" fill-rule="evenodd" stroke="#000" stroke-width="2.7482"/>
<path d="m349.09 450.49c7.2466 44.405 29.935 95.907 74.953 95.907 88.949 0-8.5354-96.187 60.248-102.28m2.9608-54.364c-46.72 16.489-43.853-31.57-27.482-60.461 46.72-82.446-17.437-76.749-49.468-43.971-25.075 25.659-57.082 60.056-62.926 115.61" fill="none" stroke="#000" stroke-width="2.7482"/>
<path d="m253.99 450.18c-7.1926 44.474-29.882 96.21-75.002 96.21-88.949 0 8.5354-96.187-60.248-102.28m-2.9608-54.364c46.72 16.489 43.853-31.57 27.482-60.461-46.72-82.446 17.437-76.749 49.468-43.971 24.981 25.563 56.842 59.798 62.86 114.99" fill="none" stroke="#000" stroke-width="2.7482"/>
<path d="m1.5 1.5v458.87c0 166.31 134.31 301.13 300 301.13 165.69 0 300-134.82 300-301.13v-458.87h-600z" fill="url(#a)"/>
<path d="m1.5 1.5v458.87c0 166.31 134.31 301.13 300 301.13 165.69 0 300-134.82 300-301.13v-458.87h-600z" fill="none" stroke="#000" stroke-width="3"/>
</g>
</svg>
